lucaGenna_web/components-web/images/icons/Social/Youtube_Off.svg

<svg width="21" height="17" viewBox="0 0 21 17" fill="none" xmlns="http://www.w3.org/2000/svg">
<path d="M8.39185 12.8957V3.89572L14.3918 8.39572L8.39185 12.8957ZM18.3918 0.795722C17.7918 0.595722 14.0918 0.395721 10.3918 0.395721C6.69185 0.395721 2.99185 0.585722 2.39185 0.775722C0.831846 1.29572 0.391846 4.79572 0.391846 8.39572C0.391846 11.9857 0.831846 15.4957 2.39185 16.0057C2.99185 16.2057 6.69185 16.3957 10.3918 16.3957C14.0918 16.3957 17.7918 16.2057 18.3918 16.0057C19.9518 15.4957 20.3918 11.9857 20.3918 8.39572C20.3918 4.79572 19.9518 1.30572 18.3918 0.795722Z" fill="white"/>
</svg>

<?xml version="1.0" encoding="utf-8"?>
<!-- Generator: Adobe Illustrator 24.0.3, SVG Export Plug-In . SVG Version: 6.00 Build 0)  -->
<svg version="1.1" id="Layer_1" xmlns="http://www.w3.org/2000/svg" xmlns:xlink="http://www.w3.org/1999/xlink" x="0px" y="0px"
	 viewBox="0 0 21 17" style="enable-background:new 0 0 21 17;" xml:space="preserve">
<style type="text/css">
	.st0{fill:#4A283E;}
</style>
<path class="st0" d="M8.4,12.9v-9l6,4.5L8.4,12.9z M18.4,0.8c-0.6-0.2-4.3-0.4-8-0.4c-3.7,0-7.4,0.2-8,0.4c-1.6,0.5-2,4-2,7.6
	c0,3.6,0.4,7.1,2,7.6c0.6,0.2,4.3,0.4,8,0.4c3.7,0,7.4-0.2,8-0.4c1.6-0.5,2-4,2-7.6C20.4,4.8,20,1.3,18.4,0.8z"/>
</svg>
